X:175
T: Qiao qing lang
N: C0297A
O: China, Liaoning
S: III, 278]
N: S. 279, 2. Zeile, vorl. Takt: neue Weise; letzte Zeile, vorl.
N: T.: neue Weise; S. 280 2. Z., letzter T.: neue Weise; unten,
N: letzte Z.: Variante; S. 281, vor Doppelstr.: Variante; letzte
N: beiden Zeilen entsprechen einer Coda. - Enthaelt Elemente der
N: prosaischen Musik.
N: +++Das Lied wurde GETEILT!!+++Fortsetzung folgt unter gleicher
N: Signatur im folgenden Dokument.
N: Wenig Verzierungen, Glissandi. Vor- und Zwischenspiele weggelassen.
R: Xiaodiao, Shuai xigua, Zhaimianhua diao]
M: 2/4
L: 1/16
K: G
G2G2E2G2 | A4A3B | G2G2E2G2 | A8
A4g2e2 | d4d2A2 | d3eB2A2 | G2G2E2DE | G4G2E2
z2AAA2A2 | g2e2e2d2 | e2EGd2A2 | G4G2E2
d2E2D2D2 | z2G2E2G2 | A4G2E2 | D2D2CDE2 | D8
A2AGA2d2 | A4A4 | G2ABE2DE | G4G4
E3GA2A2 | g2e2d2B2 | e3dB2A2 | G4G2E2
d2E2D2D2 | z2d4B2 | A4G2E2 | D2D2CDE2 | D8
A8 | E3GA2A2 | G2G2E2DE | G4G2E2
d2E2D2D2 | z2d4B2 | A4G2E2 | D2D2CDE2 | D8
G3Ad2B2 | A2A2A2A2 | G2A2d2B2 | A6z2
A3Bd2d2 | g2e2d4 | d2EdB2A2 | G4G2E2
d2EED2D2 | z2G2E2B2 | A4G2E2 | D2D2CDE2 | D8
G2G2E2G2 | A4A4 | G2G2E2G2 | A4z4
A2G2A2G2 | g2e2d4 | g2B2B2A2 | G4G4
d2EED2D2 | z2G2E2B2 | A4G2E2 | D2D2CDE2 | d8
z2A2E2G2 | A2G2A4
dEEED2D2 | z2GGE2B2 | A4G2E2 | D2D2CDE2 | D8
d2d2g2B2 | A4A4 | G2G2E2G2 | A8
A4e4 | d6A2 | d3eB2A2 | G2G2E2D2 | G4G2E2
z2ddE2AA | e3ed2d2 | z2d4B2 | A4G2E2
d2E2D2D2 | z2G2E2B2 | A4G2E2 | D2D2CDE2 | D8

